P3
12 12
255
245 238 220 245 238 220 245 238 220 245 238 220 35 77 92 35 77 92 35 77 92 35 77 92 245 238 220 245 238 220 245 238 220 245 238 220
245 238 220 245 238 220 245 238 220 35 77 92 35 77 92 35 77 92 35 77 92 35 77 92 35 77 92 245 238 220 245 238 220 245 238 220
245 238 220 245 238 220 35 77 92 35 77 92 235 47 104 235 47 104 235 47 104 235 47 104 35 77 92 35 77 92 245 238 220 245 238 220
245 238 220 35 77 92 35 77 92 235 47 104 235 47 104 250 190 70 250 190 70 235 47 104 235 47 104 35 77 92 35 77 92 245 238 220
35 77 92 35 77 92 235 47 104 235 47 104 250 190 70 250 210 70 250 210 70 250 190 70 235 47 104 235 47 104 35 77 92 35 77 92
35 77 92 35 77 92 235 47 104 250 190 70 250 210 70 255 235 120 255 235 120 250 210 70 250 190 70 235 47 104 35 77 92 35 77 92
35 77 92 35 77 92 235 47 104 250 190 70 250 210 70 255 235 120 255 235 120 250 210 70 250 190 70 235 47 104 35 77 92 35 77 92
35 77 92 35 77 92 235 47 104 235 47 104 250 190 70 250 210 70 250 210 70 250 190 70 235 47 104 235 47 104 35 77 92 35 77 92
245 238 220 35 77 92 35 77 92 235 47 104 235 47 104 250 190 70 250 190 70 235 47 104 235 47 104 35 77 92 35 77 92 245 238 220
245 238 220 245 238 220 35 77 92 35 77 92 235 47 104 235 47 104 235 47 104 235 47 104 35 77 92 35 77 92 245 238 220 245 238 220
245 238 220 245 238 220 245 238 220 35 77 92 35 77 92 35 77 92 35 77 92 35 77 92 35 77 92 245 238 220 245 238 220 245 238 220
245 238 220 245 238 220 245 238 220 245 238 220 35 77 92 35 77 92 35 77 92 35 77 92 245 238 220 245 238 220 245 238 220 245 238 220

